tools/download-figma-icons/icons/outlined-large/landlord.svg

<svg width="65" height="64" viewBox="0 0 65 64" fill="none" xmlns="http://www.w3.org/2000/svg">
<path fill-rule="evenodd" clip-rule="evenodd" d="M18.8969 9.17913C19.4899 9.04782 20.0869 8.98515 20.6799 8.98515C23.4549 8.98515 26.1239 10.3739 27.6759 12.7424C28.0179 13.2627 28.6479 13.5183 29.2579 13.385L48.6409 9.10751L51.0679 10.6743L49.5349 13.1154L47.1029 13.6506C46.8179 13.7143 46.5569 13.8585 46.3529 14.0664L44.3589 16.1017L41.6889 15.096C41.1309 14.8812 40.4989 15.0244 40.0839 15.4502L38.0889 17.4855L35.4189 16.4798C35.1459 16.3763 34.8469 16.3564 34.5639 16.4181L30.0429 17.4148C29.4459 17.5471 28.9889 18.0276 28.8879 18.6275C28.3309 21.957 25.8209 24.5832 22.4949 25.3173C18.0169 26.3081 13.5719 23.4909 12.5809 19.0433C11.5869 14.5907 14.4209 10.1659 18.8969 9.17913ZM20.6909 28.4996C21.5009 28.4996 22.3229 28.412 23.1449 28.231C27.3329 27.3069 30.5689 24.1763 31.6319 20.1216L34.7759 19.4293L37.9469 20.623C38.5029 20.8329 39.1349 20.6926 39.5519 20.2679L41.5459 18.2335L44.2159 19.2383C44.7719 19.4511 45.4049 19.3109 45.8219 18.8851L48.1889 16.4678L50.7969 15.8938C51.1909 15.8073 51.5319 15.5676 51.7459 15.2273L54.3939 11.0125C54.8279 10.3211 54.6249 9.4129 53.9379 8.97023L49.7469 6.26346C49.4089 6.0466 48.9959 5.97199 48.6049 6.05754L29.5699 10.2585C26.9009 6.92398 22.4849 5.32937 18.2469 6.26445C15.2939 6.91702 12.7739 8.6708 11.1519 11.2045C9.5289 13.7392 8.9969 16.7523 9.6509 19.6899C10.8189 24.9254 15.5049 28.4996 20.6909 28.4996ZM60.89 46.1926C60.716 46.6959 60.356 47.1008 59.875 47.3326L31.878 60.9073L3 51.9692V37.1412H17.666C26.151 37.1412 27.742 42.2543 27.801 42.4572C27.978 43.1088 28.572 43.5624 29.25 43.5624H42.963C42.974 43.5624 42.983 43.5654 42.993 43.5654C44.096 43.5654 44.994 44.4587 44.994 45.5549C44.994 46.6522 44.096 47.5445 42.993 47.5445H24.159C23.33 47.5445 22.659 48.213 22.659 49.0366C22.659 49.8613 23.33 50.5288 24.159 50.5288H42.993C43.096 50.5288 43.197 50.5189 43.294 50.499C43.999 50.4562 44.66 50.2702 45.256 49.9658C45.2665 49.9619 45.2769 49.9582 45.2874 49.9547C45.2935 49.9527 45.2997 49.9506 45.3058 49.9486C45.3371 49.9383 45.3683 49.928 45.399 49.913L58.121 43.7544C59.114 43.2749 60.313 43.6858 60.797 44.6716C61.032 45.1491 61.065 45.6892 60.89 46.1926ZM63.494 43.3625C62.286 40.8984 59.283 39.8698 56.808 41.0715L47.972 45.348C47.866 42.8114 45.847 40.7751 43.309 40.6139C43.206 40.591 43.101 40.5781 42.993 40.5781H30.259C29.229 38.4811 26.084 34.1569 17.666 34.1569H1.5C0.672 34.1569 0 34.8253 0 35.649V53.0675C0 53.721 0.427 54.298 1.055 54.493L31.555 63.9333C31.5585 63.9343 31.562 63.9346 31.5655 63.9348H31.5655C31.5674 63.935 31.5692 63.9351 31.571 63.9353C31.5727 63.9356 31.5743 63.9359 31.576 63.9363C31.709 63.9761 31.848 63.997 31.99 63.998C31.9921 63.998 31.994 63.9986 31.9957 63.9991C31.9972 63.9996 31.9986 64 32 64H32.001C32.14 64 32.279 63.9741 32.415 63.9343C32.454 63.9234 32.49 63.9105 32.527 63.8955C32.5448 63.8886 32.5629 63.8831 32.5811 63.8776L32.5811 63.8776L32.5812 63.8776C32.6069 63.8698 32.6328 63.862 32.658 63.8498L61.19 50.0165C62.39 49.4346 63.291 48.4209 63.727 47.1655C64.161 45.9081 64.079 44.5582 63.494 43.3625ZM20.8765 17.2075C21.2065 18.6828 20.2705 20.1441 18.7875 20.4704C17.3055 20.7977 15.8365 19.8676 15.5075 18.3923C15.1795 16.9181 16.1135 15.4567 17.5975 15.1295C19.0795 14.8022 20.5485 15.7323 20.8765 17.2075Z" fill="black"/>
</svg>

<svg width="65" height="64" viewBox="0 0 65 64" fill="none" xmlns="http://www.w3.org/2000/svg"><path fill-rule="evenodd" clip-rule="evenodd" d="M18.897 9.18a8.238 8.238 0 0 1 1.783-.195c2.775 0 5.444 1.389 6.996 3.757.342.52.972.776 1.582.643L48.64 9.108l2.427 1.566-1.533 2.441-2.432.536a1.513 1.513 0 0 0-.75.415l-1.994 2.036-2.67-1.006a1.495 1.495 0 0 0-1.605.354l-1.995 2.035-2.67-1.005a1.511 1.511 0 0 0-.855-.062l-4.521.997a1.5 1.5 0 0 0-1.155 1.213c-.557 3.329-3.067 5.955-6.393 6.69-4.478.99-8.923-1.827-9.914-6.275-.994-4.452 1.84-8.877 6.316-9.864ZM20.69 28.5c.81 0 1.632-.088 2.454-.269 4.188-.924 7.424-4.055 8.487-8.11l3.144-.692 3.17 1.194c.557.21 1.189.07 1.606-.355l1.994-2.035 2.67 1.005a1.502 1.502 0 0 0 1.606-.353l2.367-2.417 2.608-.574a1.5 1.5 0 0 0 .949-.667l2.648-4.215c.434-.69.23-1.6-.456-2.042l-4.191-2.707a1.52 1.52 0 0 0-1.142-.205l-19.035 4.2a11.418 11.418 0 0 0-11.323-3.994 11.244 11.244 0 0 0-7.095 4.94A11.138 11.138 0 0 0 9.65 19.69c1.168 5.235 5.854 8.81 11.04 8.81Zm40.2 17.693a1.972 1.972 0 0 1-1.015 1.14L31.878 60.907 3 51.97V37.141h14.666c8.485 0 10.076 5.113 10.135 5.316a1.501 1.501 0 0 0 1.449 1.105h13.713c.011 0 .02.003.03.003 1.103 0 2.001.894 2.001 1.99 0 1.097-.898 1.99-2.001 1.99H24.159c-.829 0-1.5.668-1.5 1.492s.671 1.492 1.5 1.492h18.834c.103 0 .204-.01.301-.03a4.955 4.955 0 0 0 1.962-.533.98.98 0 0 1 .031-.011l.019-.006a.721.721 0 0 0 .093-.036l12.722-6.159a2.01 2.01 0 0 1 2.676.918c.235.477.268 1.017.093 1.52Zm2.604-2.83c-1.208-2.465-4.211-3.493-6.686-2.291l-8.836 4.276c-.106-2.537-2.125-4.573-4.663-4.734a1.45 1.45 0 0 0-.316-.036H30.259c-1.03-2.097-4.175-6.421-12.593-6.421H1.5c-.828 0-1.5.668-1.5 1.492v17.419c0 .653.427 1.23 1.055 1.425l30.5 9.44a.047.047 0 0 0 .01.002h.006l.005.001c.133.04.272.061.414.062l.006.001L32 64h.001a1.48 1.48 0 0 0 .526-.105.744.744 0 0 1 .054-.017.546.546 0 0 0 .077-.028L61.19 50.016a4.958 4.958 0 0 0 2.537-2.85 4.932 4.932 0 0 0-.233-3.803ZM20.877 17.207a2.734 2.734 0 0 1-2.09 3.262 2.75 2.75 0 0 1-3.28-2.078 2.736 2.736 0 0 1 2.09-3.262 2.748 2.748 0 0 1 3.28 2.077Z" fill="currentColor"/></svg>
